X: 8539
T: Crested Hens
R: waltz
M: 3/4
K: Ddorian
|:D3F ED|A4 AB|cB Ad cB|cB AB AG|
D3F ED|A4 AB|cB Ad cd|1 A6:|2 A3d de||
|:f2Af Af|_B4de|fe gf ed|^c2d2 e2|
f2Af Af|_B4de|fe gf ec|1 d3d de:|2 d6||

